Unicodia/Resources/Scripts/16E40.svg

<?xml version="1.0" encoding="UTF-8" standalone="no"?>
<!-- Created with Inkscape (http://www.inkscape.org/) -->

<svg
   width="16"
   height="16"
   viewBox="0 0 16 16"
   version="1.1"
   id="svg5"
   inkscape:version="1.2.2 (732a01da63, 2022-12-09)"
   sodipodi:docname="16E40.svg"
   inkscape:export-filename="..\0000.png"
   inkscape:export-xdpi="96"
   inkscape:export-ydpi="96"
   xml:space="preserve"
   xmlns:inkscape="http://www.inkscape.org/namespaces/inkscape"
   xmlns:sodipodi="http://sodipodi.sourceforge.net/DTD/sodipodi-0.dtd"
   xmlns="http://www.w3.org/2000/svg"
   xmlns:svg="http://www.w3.org/2000/svg"><sodipodi:namedview
     id="namedview7"
     pagecolor="#ffffff"
     bordercolor="#666666"
     borderopacity="1.0"
     inkscape:pageshadow="2"
     inkscape:pageopacity="0"
     inkscape:pagecheckerboard="0"
     inkscape:document-units="px"
     showgrid="true"
     width="16mm"
     units="px"
     inkscape:zoom="33.322407"
     inkscape:cx="9.0479658"
     inkscape:cy="8.7928822"
     inkscape:window-width="1680"
     inkscape:window-height="998"
     inkscape:window-x="-8"
     inkscape:window-y="-8"
     inkscape:window-maximized="1"
     inkscape:current-layer="layer1"
     showguides="true"
     inkscape:guide-bbox="true"
     inkscape:snap-bbox="true"
     inkscape:bbox-paths="true"
     inkscape:bbox-nodes="true"
     inkscape:snap-global="true"
     inkscape:showpageshadow="2"
     inkscape:deskcolor="#ffffff"><inkscape:grid
       type="xygrid"
       id="grid828"
       originx="0"
       originy="0" /></sodipodi:namedview><defs
     id="defs2" /><g
     inkscape:label="Layer 1"
     inkscape:groupmode="layer"
     id="layer1"><path
       d="M 7.2823182,5.0157816 C 7.422551,4.4179168 8.0135301,3 10.465081,3 H 15 V 4.3908893 C 14.401973,4.4230752 14.146351,4.866251 13.897474,5.7213051 L 13.52303,6.9710897 c -1.418847,4.7495843 -2.891799,7.0350773 -6.2615146,7.0350773 -2.8548765,0 -4.4594678,-1.64609 -4.6597322,-3.547775 l 1.5809806,-0.241894 c 0.1511624,1.318349 1.1217638,2.358464 3.0579494,2.358464 2.3739464,0 3.4026448,-1.476795 4.7221388,-5.9062395 L 12.337295,5.4189378 C 12.55503,4.7016038 12.688822,4.5285692 12.794948,4.411047 h -2.392274 c -0.128328,0 -3.259087,0.032933 -1.5185731,3.2655662 L 7.6567606,8.241032 C 6.0474617,4.9973977 5.0425258,4.2296266 3.9539374,4.2296266 c -1.5040076,0 -1.5849019,1.4965407 -0.9985139,2.2778335 l -1.3937592,0.64505 C 1.1872215,6.6418521 0.99999999,6.0572755 0.99999999,5.3987801 c 0,-1.4153587 1.00206931,-2.6205162 2.80832091,-2.6205162 1.3313523,0 2.4893582,0.7458392 3.4739973,2.2375177 z"
       id="path952"
       style="fill:#784421;fill-opacity:1;stroke-width:0.999998" /></g></svg>

<svg height="16" viewBox="0 0 16 16" width="16" xmlns="http://www.w3.org/2000/svg"><path d="m7.28 5.02c.14-.6.73-2.02 3.19-2.02h4.53v1.39c-.6.03-.85.48-1.1 1.33l-.38 1.25c-1.42 4.75-2.89 7.04-6.26 7.04-2.85 0-4.46-1.65-4.66-3.55l1.58-.24c.15 1.32 1.12 2.36 3.06 2.36 2.37 0 3.4-1.48 4.72-5.91l.38-1.25c.22-.72.35-.89.45-1.01h-2.39c-.13 0-3.26.03-1.52 3.27l-1.22.56c-1.61-3.24-2.62-4.01-3.71-4.01-1.5 0-1.58 1.5-1 2.28l-1.39.65c-.37-.52-.56-1.1-.56-1.76 0-1.42 1-2.62 2.81-2.62 1.33 0 2.49.75 3.47 2.24z" fill="#784421"/></svg>
